src/assets/icon/add_circle2.svg

<svg width="16" height="16" viewBox="0 0 16 16" fill="none" xmlns="http://www.w3.org/2000/svg">
<mask id="mask0_308_10385" style="mask-type:alpha" maskUnits="userSpaceOnUse" x="0" y="0" width="16" height="16">
<rect width="16" height="16" fill="#D9D9D9"/>
</mask>
<g mask="url(#mask0_308_10385)">
<path d="M7.49984 8.49984V10.6665C7.49984 10.8082 7.54778 10.9269 7.64367 11.0227C7.73956 11.1186 7.85834 11.1665 8 11.1665C8.14178 11.1665 8.2605 11.1186 8.35617 11.0227C8.45195 10.9269 8.49984 10.8082 8.49984 10.6665V8.49984H10.6665C10.8082 8.49984 10.9269 8.45189 11.0227 8.356C11.1186 8.26011 11.1665 8.14134 11.1665 7.99967C11.1665 7.85789 11.1186 7.73917 11.0227 7.6435C10.9269 7.54773 10.8082 7.49984 10.6665 7.49984H8.49984V5.33317C8.49984 5.1915 8.45189 5.07278 8.356 4.977C8.26011 4.88111 8.14134 4.83317 7.99967 4.83317C7.85789 4.83317 7.73917 4.88111 7.6435 4.977C7.54773 5.07278 7.49984 5.1915 7.49984 5.33317V7.49984H5.33317C5.1915 7.49984 5.07278 7.54778 4.977 7.64367C4.88111 7.73956 4.83317 7.85834 4.83317 8C4.83317 8.14178 4.88111 8.2605 4.977 8.35617C5.07278 8.45195 5.1915 8.49984 5.33317 8.49984H7.49984ZM8.001 14.3332C7.125 14.3332 6.30161 14.1669 5.53084 13.8345C4.76006 13.5021 4.08961 13.0509 3.5195 12.481C2.94939 11.9111 2.498 11.2409 2.16534 10.4705C1.83278 9.70006 1.6665 8.87689 1.6665 8.001C1.6665 7.125 1.83273 6.30161 2.16517 5.53084C2.49761 4.76006 2.94878 4.08961 3.51867 3.5195C4.08856 2.94939 4.75873 2.498 5.52917 2.16534C6.29961 1.83278 7.12278 1.6665 7.99867 1.6665C8.87467 1.6665 9.69806 1.83273 10.4688 2.16517C11.2396 2.49761 11.9101 2.94878 12.4802 3.51867C13.0503 4.08856 13.5017 4.75873 13.8343 5.52917C14.1669 6.29961 14.3332 7.12278 14.3332 7.99867C14.3332 8.87467 14.1669 9.69806 13.8345 10.4688C13.5021 11.2396 13.0509 11.9101 12.481 12.4802C11.9111 13.0503 11.2409 13.5017 10.4705 13.8343C9.70006 14.1669 8.87689 14.3332 8.001 14.3332ZM7.99984 13.3332C9.48873 13.3332 10.7498 12.8165 11.7832 11.7832C12.8165 10.7498 13.3332 9.48873 13.3332 7.99984C13.3332 6.51095 12.8165 5.24984 11.7832 4.2165C10.7498 3.18317 9.48873 2.6665 7.99984 2.6665C6.51095 2.6665 5.24984 3.18317 4.2165 4.2165C3.18317 5.24984 2.6665 6.51095 2.6665 7.99984C2.6665 9.48873 3.18317 10.7498 4.2165 11.7832C5.24984 12.8165 6.51095 13.3332 7.99984 13.3332Z" fill="#636263"/>
</g>
</svg>

<svg xmlns="http://www.w3.org/2000/svg" width="16" height="16" fill="none" xmlns:v="https://vecta.io/nano"><mask id="A" maskUnits="userSpaceOnUse" x="0" y="0" width="16" height="16" mask-type="alpha"><path fill="#d9d9d9" d="M0 0h16v16H0z"/></mask><g mask="url(#A)"><path d="M7.5 8.5v2.167c0 .142.048.26.144.356s.215.144.356.144.261-.048.356-.144.144-.215.144-.356V8.5h2.167c.142 0 .26-.048.356-.144s.144-.215.144-.356-.048-.261-.144-.356-.215-.144-.356-.144H8.5V5.333c0-.142-.048-.26-.144-.356S8.141 4.833 8 4.833s-.261.048-.356.144-.144.214-.144.356V7.5H5.333c-.142 0-.26.048-.356.144s-.144.215-.144.356.048.261.144.356.214.144.356.144H7.5zm.501 5.833a6.17 6.17 0 0 1-2.47-.499c-.771-.332-1.441-.784-2.011-1.354s-1.021-1.24-1.354-2.011-.499-1.594-.499-2.469a6.17 6.17 0 0 1 .499-2.47c.332-.771.784-1.441 1.354-2.011s1.24-1.021 2.01-1.354 1.594-.499 2.47-.499a6.17 6.17 0 0 1 2.47.499c.771.332 1.441.784 2.011 1.354s1.021 1.24 1.354 2.01.499 1.594.499 2.47a6.17 6.17 0 0 1-.499 2.47c-.332.771-.784 1.441-1.354 2.011s-1.24 1.021-2.011 1.354-1.594.499-2.469.499zm-.001-1c1.489 0 2.75-.517 3.783-1.55s1.55-2.294 1.55-3.783-.517-2.75-1.55-3.783S9.489 2.667 8 2.667s-2.75.517-3.783 1.55S2.667 6.511 2.667 8s.517 2.75 1.55 3.783 2.294 1.55 3.783 1.55z" fill="#636263"/></g></svg>
